; HEADER_BLOCK_START
; generated by OrcaSlicer 2.4.2; timestamp normalized to deterministic text
; total layer number: 507
; filament_density: 0
; filament_diameter: 1.75
; max_z_height: 101.50
; filament: 1
; HEADER_BLOCK_END

; external perimeters extrusion width = 0.42mm
; perimeters extrusion width = 0.45mm
; infill extrusion width = 0.50mm
; solid infill extrusion width = 0.45mm
; top infill extrusion width = 0.45mm
; support material extrusion width = 0.45mm
; first layer extrusion width = 0.50mm

; EXECUTABLE_BLOCK_START
M73 P0 R62
M201 X12000 Y12000 Z500 E5000
M203 X500 Y500 Z20 E50
M204 P20000 R5000 T20000
M205 X9.00 Y9.00 Z0.25 E3.00 ; sets the jerk limits, mm/sec
;TYPE:Custom
G28
G90
G1 X0 F9000
G1 Y20 F9000
G1 Z0.300 F600
G1 Y0 F9000
G91
M83
M140 S65 ;set bed temp
M104 S235 ;set extruder temp
M190 S65 ;wait for bed temp
M109 S235;wait for extruder temp
G1 E25 F480
G4 P1000
G1 E-0.200 Z5 F600
G1 X55.000 Y0.000 F6000
G1 Z-4.800 F600
G1 X55.000 E13.2 F3000
G1 X55.000 E8.8 F3000
G1 Y1 E0.16 F3000
G1 X-55.000 E8.8 F3000
G1 X-55.000 E13.2 F3000
G1 Y1 E0.24 F3000
G1 X55.000 E13.2 F3000
G1 X55.000 E8.8 F3000
G1 E-0.200 Z1 F600
M400

G90
G21
M83 ; use relative distances for extrusion
M106 S0
;LAYER_CHANGE
;Z:0.3
;HEIGHT:0.3
TIMELAPSE_TAKE_FRAME
G92 E0
G92 E0
;_SET_FAN_SPEED_CHANGING_LAYER
M204 S5000
M204 S8000
G1 E-.5 F3000
G1 X76.75 Y101.402 F12600
G1 Z.7
G1 Z.3
G1 E.5 F3000
M204 S5000
;TYPE:Skirt
;WIDTH:0.5
G1 F3600
G1 X148.344 Y101.41 E3.81211
G1 X150.125 Y101.682 E.09598
G1 X151.203 Y102.072 E.06102
G1 X152.21 Y102.619 E.06102
G1 X153.476 Y103.647 E.08685
G1 X154.583 Y105.07 E.09598
G1 X155.27 Y106.549 E.08685
G1 X155.564 Y107.748 E.06572
G1 X155.657 Y108.643 E.0479
G1 X155.615 Y111.876 E.17218
G1 X155.247 Y113.465 E.08685
G1 X154.789 Y114.516 E.06102
G1 X154.178 Y115.485 E.06102
G1 X153.428 Y116.351 E.06102
G1 X152.555 Y117.094 E.06102
G1 X143.242 Y122.652 E.57749
G1 X141.419 Y123.404 E.10496
G1 X139.895 Y123.699 E.08269
G1 X119.715 Y123.704 E1.07448
G1 X70.9 Y118.481 E2.61407
G1 X69.41 Y118.122 E.08162
G1 X68.359 Y117.664 E.06102
G1 X67.39 Y117.053 E.06102
G1 X66.524 Y116.303 E.06102
G1 X65.781 Y115.43 E.06102
G1 X65.179 Y114.455 E.06102
G1 X64.73 Y113.401 E.06102
G1 X64.436 Y112.202 E.06572
G1 X64.326 Y110.975 E.06559
G1 X64.385 Y108.074 E.15451
G1 X64.607 Y106.95 E.06102
G1 X65.211 Y105.434 E.08685
G1 X66.238 Y103.953 E.09598
G1 X67.445 Y102.856 E.08685
G1 X69.018 Y101.976 E.09598
G1 X70.673 Y101.511 E.09153
G1 X71.9 Y101.401 E.06559
G1 X76.73 Y101.402 E.25716
M204 S8000
G1 E-.5 F3000
G1 X76.73 Y104.837 Z.7 F12600
G1 Z.3
G1 E.5 F3000
M204 S5000
;TYPE:Brim
G1 F3600
G1 X148.092 Y104.837 E3.79977
G1 X148.725 Y104.885 E.0338
G1 X149.335 Y105.026 E.03336
G1 X149.917 Y105.258 E.03336
G1 X150.457 Y105.574 E.03336
G1 X150.944 Y105.969 E.03336
G1 X151.365 Y106.433 E.03336
G1 X151.711 Y106.955 E.03336
G1 X151.975 Y107.524 E.03336
G1 X152.149 Y108.122 E.0332
G1 X152.238 Y108.986 E.04625
G1 X152.238 Y110.967 E.10545
G1 X152.19 Y111.6 E.0338
G1 X152.049 Y112.21 E.03336
G1 X151.817 Y112.792 E.03336
G1 X151.501 Y113.332 E.03336
G1 X151.106 Y113.819 E.03336
G1 X150.642 Y114.24 E.03336
G1 X150.12 Y114.586 E.03336
G1 X149.551 Y114.85 E.03336
G1 X148.953 Y115.024 E.0332
G1 X148.089 Y115.113 E.04625
G1 X144.904 Y115.113 E.16959
G1 X144.816 Y114.059 E.05633
G1 X144.52 Y112.985 E.05931
G1 X144.068 Y112.054 E.05514
G1 X143.477 Y111.238 E.05361
G1 X143.411 Y111.193 E.00427
G1 X148.1 Y111.193 E.24966
G1 X148.269 Y111.112 E.00998
G1 X148.318 Y110.975 E.00774
G1 X148.318 Y108.975 E.10649
G1 X148.237 Y108.806 E.00998
G1 X148.1 Y108.757 E.00774
G1 X71.9 Y108.757 E4.05736
G1 X71.731 Y108.838 E.00998
G1 X71.682 Y108.975 E.00774
G1 X71.682 Y110.975 E.10649
G1 X71.763 Y111.144 E.00998
G1 X71.9 Y111.193 E.00774
G1 X115.89 Y111.193 E2.34228
G1 X115.534 Y111.605 E.029
G1 X115.003 Y112.495 E.05516
G1 X114.63 Y113.483 E.05622
G1 X114.442 Y114.501 E.05514
G1 X114.437 Y115.113 E.03262
G1 X71.908 Y115.113 E2.26448
G1 X71.275 Y115.065 E.0338
G1 X70.665 Y114.924 E.03336
G1 X70.083 Y114.692 E.03336
G1 X69.543 Y114.376 E.03336
G1 X69.056 Y113.981 E.03336
G1 X68.635 Y113.517 E.03336
G1 X68.289 Y112.995 E.03336
G1 X68.025 Y112.426 E.03336
G1 X67.851 Y111.828 E.0332
G1 X67.762 Y110.964 E.04625
G1 X67.762 Y108.983 E.10545
G1 X67.81 Y108.35 E.0338
G1 X67.951 Y107.74 E.03336
G1 X68.183 Y107.158 E.03336
G1 X68.499 Y106.618 E.03336
G1 X68.894 Y106.131 E.03336
G1 X69.358 Y105.71 E.03336
G1 X69.88 Y105.364 E.03336
G1 X70.449 Y105.1 E.03336
G1 X71.047 Y104.926 E.0332
G1 X71.911 Y104.837 E.04625
G1 X76.71 Y104.837 E.25549
M204 S8000
G1 X76.71 Y105.273 F12600
M204 S5000
G1 F3600
G1 X148.08 Y105.273 E3.80021
G1 X148.668 Y105.319 E.03142
G1 X149.214 Y105.446 E.02983
G1 X149.734 Y105.655 E.02983
G1 X150.216 Y105.94 E.02983
G1 X150.65 Y106.294 E.02983
G1 X151.014 Y106.694 E.02878
G1 X151.325 Y107.16 E.02983
G1 X151.568 Y107.686 E.03088
G1 X151.721 Y108.218 E.02944
G1 X151.803 Y109.016 E.0427
G1 X151.803 Y110.945 E.10275
G1 X151.759 Y111.524 E.03089
G1 X151.629 Y112.089 E.03088
G1 X151.429 Y112.591 E.02878
G1 X151.146 Y113.075 E.02983
G1 X150.781 Y113.525 E.03088
G1 X150.381 Y113.889 E.02878
G1 X149.915 Y114.2 E.02983
G1 X149.407 Y114.437 E.02983
G1 X148.857 Y114.596 E.03049
G1 X148.073 Y114.677 E.04198
G1 X145.425 Y114.678 E.14099
G1 X145.324 Y114.63 E.00594
G1 X145.295 Y114.56 E.00405
G1 X145.233 Y113.932 E.03358
G1 X144.943 Y112.881 E.05808
G1 X144.431 Y111.816 E.06292
G1 X144.43 Y111.704 E.00594
G1 X144.549 Y111.628 E.00749
G1 X148.085 Y111.628 E.18832
G1 X148.301 Y111.58 E.01175
G1 X148.444 Y111.511 E.00847
G1 X148.6 Y111.391 E.01048
G1 X148.684 Y111.246 E.00891
G1 X148.753 Y110.964 E.01549
G1 X148.753 Y108.99 E.10512
G1 X148.705 Y108.774 E.01175
M73 P0 R61
G1 X148.636 Y108.631 E.00847
G1 X148.516 Y108.475 E.01048
G1 X148.371 Y108.391 E.00891
G1 X148.089 Y108.322 E.01549
G1 X71.915 Y108.322 E4.05599
G1 X71.699 Y108.37 E.01175
G1 X71.556 Y108.439 E.00847
G1 X71.4 Y108.559 E.01048
G1 X71.316 Y108.704 E.00891
G1 X71.247 Y108.986 E.01549
G1 X71.247 Y110.96 E.10512
G1 X71.295 Y111.176 E.01175
G1 X71.364 Y111.319 E.00847
G1 X71.484 Y111.475 E.01048
G1 X71.629 Y111.559 E.00891
G1 X71.911 Y111.628 E.01549
G1 X114.782 Y111.628 E2.28273
G1 X114.883 Y111.676 E.00594
G1 X114.895 Y111.825 E.00793
G1 X114.591 Y112.351 E.03238
G1 X114.226 Y113.318 E.05505
G1 X114.015 Y114.415 E.05945
G1 X114.005 Y114.556 E.00753
G1 X113.951 Y114.653 E.00594
G1 X113.875 Y114.678 E.00427
G1 X71.93 Y114.678 E2.23342
G1 X71.351 Y114.634 E.03089
G1 X70.805 Y114.509 E.02983
G1 X70.266 Y114.295 E.03088
G1 X69.784 Y114.01 E.02983
G1 X69.35 Y113.656 E.02983
G1 X68.986 Y113.256 E.02878
G1 X68.666 Y112.773 E.03088
G1 X68.432 Y112.264 E.02983
G1 X68.279 Y111.732 E.02944
G1 X68.198 Y110.948 E.04198
G1 X68.197 Y109.005 E.10347
G1 X68.244 Y108.407 E.03194
G1 X68.366 Y107.88 E.02878
G1 X68.571 Y107.359 E.02983
G1 X68.854 Y106.875 E.02983
G1 X69.205 Y106.439 E.02983
G1 X69.619 Y106.061 E.02983
G1 X70.102 Y105.741 E.03088
G1 X70.593 Y105.513 E.02878
G1 X71.12 Y105.359 E.02925
G1 X71.927 Y105.273 E.04322
G1 X76.69 Y105.273 E.25358
M204 S8000
G1 X76.69 Y105.709 F12600
M204 S5000
G1 F3600
G1 X148.068 Y105.709 E3.80064
G1 X148.611 Y105.753 E.029
G1 X149.092 Y105.867 E.0263
G1 X149.549 Y106.052 E.0263
G1 X149.974 Y106.304 E.0263
G1 X150.342 Y106.605 E.02529
G1 X150.663 Y106.956 E.02531
G1 X150.938 Y107.366 E.02628
G1 X151.155 Y107.83 E.02727
G1 X151.292 Y108.312 E.02672
G1 X151.367 Y109.045 E.0392
G1 X151.367 Y110.924 E.10007
G1 X151.325 Y111.468 E.02904
G1 X151.208 Y111.968 E.02734
G1 X151.031 Y112.408 E.02527
G1 X150.792 Y112.818 E.02525
G1 X150.456 Y113.232 E.02838
G1 X150.104 Y113.55 E.02527
G1 X149.709 Y113.813 E.02529
G1 X149.263 Y114.023 E.02624
G1 X148.762 Y114.168 E.02776
G1 X148.057 Y114.241 E.03773
G1 X145.82 Y114.242 E.11912
G1 X145.719 Y114.194 E.00594
G1 X145.69 Y114.127 E.00389
G1 X145.651 Y113.807 E.01718
G1 X145.366 Y112.775 E.057
G1 X145.123 Y112.25 E.03083
G1 X145.124 Y112.138 E.00594
G1 X145.241 Y112.064 E.0074
G1 X148.189 Y112.052 E.15693
G1 X148.386 Y112.007 E.01076
G1 X148.624 Y111.907 E.01377
G1 X148.857 Y111.742 E.0152
G1 X148.981 Y111.601 E.01001
G1 X149.109 Y111.339 E.01551
G1 X149.189 Y110.951 E.02113
G1 X149.189 Y109.002 E.10378
G1 X149.13 Y108.683 E.01726
G1 X148.975 Y108.357 E.01924
G1 X148.869 Y108.219 E.00922
G1 X148.726 Y108.094 E.01015
G1 X148.464 Y107.966 E.01551
G1 X148.076 Y107.886 E.02113
G1 X71.927 Y107.886 E4.05465
G1 X71.508 Y107.979 E.02283
G1 X71.282 Y108.1 E.01367
G1 X71.144 Y108.206 E.00922
G1 X71.016 Y108.352 E.01039
G1 X70.943 Y108.478 E.00773
G1 X70.892 Y108.606 E.00733
G1 X70.811 Y108.999 E.02138
G1 X70.811 Y110.948 E.10378
G1 X70.904 Y111.367 E.02283
G1 X71.025 Y111.593 E.01367
G1 X71.131 Y111.731 E.00922
G1 X71.274 Y111.856 E.01015
G1 X71.536 Y111.984 E.01551
G1 X71.924 Y112.064 E.02113
G1 X114.045 Y112.064 E2.24275
G1 X114.146 Y112.112 E.00594
G1 X114.167 Y112.241 E.00697
G1 X113.822 Y113.155 E.052
G1 X113.624 Y114.137 E.05337
G1 X113.558 Y114.227 E.00594
G1 X113.496 Y114.242 E.00338
G1 X71.941 Y114.242 E2.21265
G1 X71.426 Y114.203 E.0275
G1 X70.926 Y114.089 E.02735
G1 X70.468 Y113.906 E.02622
G1 X70.042 Y113.657 E.02628
G1 X69.644 Y113.332 E.02737
G1 X69.326 Y112.979 E.02529
G1 X69.053 Y112.568 E.02626
G1 X68.845 Y112.121 E.02626
G1 X68.707 Y111.638 E.02675
G1 X68.634 Y110.932 E.03778
G1 X68.633 Y109.027 E.10145
G1 X68.675 Y108.483 E.02905
G1 X68.786 Y108.001 E.02634
G1 X68.961 Y107.559 E.02529
G1 X69.208 Y107.132 E.0263
G1 X69.517 Y106.746 E.0263
G1 X69.881 Y106.413 E.02626
G1 X70.325 Y106.118 E.02838
G1 X70.756 Y105.92 E.02527
G1 X71.194 Y105.791 E.02429
G1 X71.943 Y105.709 E.04015
G1 X76.67 Y105.709 E.25166
M204 S8000
G1 X76.67 Y106.146 F12600
M204 S5000
G1 F3600
G1 X148.056 Y106.145 E3.80105
G1 X148.552 Y106.187 E.02653
G1 X148.968 Y106.287 E.02277
G1 X149.364 Y106.449 E.02277
G1 X149.715 Y106.657 E.02177
G1 X150.034 Y106.916 E.02188
G1 X150.313 Y107.218 E.02187
G1 X150.552 Y107.572 E.02274
G1 X150.741 Y107.973 E.02361
G1 X150.864 Y108.406 E.02398
G1 X150.932 Y109.073 E.03571
G1 X150.932 Y110.902 E.09737
G1 X150.894 Y111.391 E.0261
G1 X150.788 Y111.845 E.02485
G1 X150.642 Y112.207 E.02078
G1 X150.438 Y112.561 E.02173
G1 X150.132 Y112.938 E.02586
G1 X149.828 Y113.21 E.02174
G1 X149.502 Y113.428 E.02085
G1 X149.118 Y113.61 E.02263
G1 X148.667 Y113.739 E.025
G1 X148.041 Y113.804 E.0335
G1 X146.2 Y113.806 E.09801
G1 X146.074 Y113.71 E.00844
G1 X145.786 Y112.662 E.05787
G1 X145.806 Y112.552 E.00594
G1 X145.912 Y112.497 E.00638
G1 X148.179 Y112.487 E.12071
G1 X148.475 Y112.433 E.01602
G1 X148.782 Y112.313 E.01758
G1 X149.101 Y112.104 E.02029
G1 X149.305 Y111.892 E.01568
G1 X149.497 Y111.538 E.02143
G1 X149.537 Y111.42 E.0066
G1 X149.625 Y110.939 E.02607
G1 X149.625 Y109.012 E.10259
G1 X149.56 Y108.611 E.02163
G1 X149.52 Y108.489 E.00681
G1 X149.314 Y108.084 E.02423
G1 X149.149 Y107.885 E.01378
G1 X149.019 Y107.772 E.00914
G1 X148.912 Y107.7 E.00689
G1 X148.54 Y107.537 E.0216
G1 X148.064 Y107.45 E.02577
G1 X71.939 Y107.45 E4.05334
G1 X71.42 Y107.553 E.02816
G1 X71.295 Y107.599 E.00711
G1 X71.084 Y107.711 E.01272
G1 X70.886 Y107.855 E.01305
G1 X70.695 Y108.059 E.01487
G1 X70.537 Y108.323 E.01641
G1 X70.463 Y108.527 E.01154
G1 X70.387 Y108.899 E.0202
G1 X70.375 Y110.936 E.10847
G1 X70.478 Y111.455 E.02814
G1 X70.524 Y111.578 E.00703
G1 X70.684 Y111.864 E.01745
G1 X70.851 Y112.065 E.01393
G1 X70.981 Y112.178 E.00914
G1 X71.337 Y112.372 E.02161
G1 X71.824 Y112.488 E.02663
G1 X113.415 Y112.5 E2.21458
G1 X113.516 Y112.547 E.00594
G1 X113.538 Y112.674 E.00687
G1 X113.393 Y113.078 E.02283
G1 X113.268 Y113.702 E.03387
G1 X113.201 Y113.791 E.00594
G1 X113.14 Y113.807 E.00338
G1 X71.953 Y113.806 E2.19306
G1 X71.482 Y113.769 E.02514
G1 X71.046 Y113.668 E.02383
G1 X70.651 Y113.509 E.02266
G1 X70.3 Y113.303 E.02166
G1 X69.938 Y113.008 E.02487
G1 X69.665 Y112.703 E.02178
G1 X69.44 Y112.363 E.02174
G1 X69.259 Y111.978 E.02266
G1 X69.136 Y111.543 E.02404
G1 X69.071 Y110.916 E.03359
G1 X69.069 Y109.048 E.09945
G1 X69.106 Y108.559 E.02614
G1 X69.207 Y108.122 E.02389
G1 X69.359 Y107.741 E.02183
G1 X69.564 Y107.387 E.02177
G1 X69.83 Y107.052 E.02277
G1 X70.142 Y106.764 E.02265
G1 X70.547 Y106.495 E.02583
G1 X70.9 Y106.333 E.02073
G1 X71.268 Y106.223 E.02043
G1 X71.96 Y106.146 E.03707
G1 X76.65 Y106.146 E.2497
M204 S8000
G1 X76.65 Y106.581 F12600
M204 S5000
G1 F3600
G1 X148.043 Y106.581 E3.80143
G1 X148.492 Y106.62 E.02402
M73 P1 R61
G1 X148.843 Y106.706 E.01922
G1 X149.177 Y106.845 E.01927
G1 X149.473 Y107.022 E.01835
G1 X149.742 Y107.241 E.01849
G1 X149.975 Y107.497 E.01845
G1 X150.167 Y107.78 E.01816
G1 X150.335 Y108.137 E.02101
G1 X150.436 Y108.5 E.02006
G1 X150.496 Y109.102 E.03222
G1 X150.496 Y110.88 E.0947
G1 X150.463 Y111.314 E.02315
G1 X150.367 Y111.723 E.02235
G1 X150.245 Y112.024 E.01732
G1 X150.083 Y112.304 E.0172
G1 X149.808 Y112.643 E.02327
G1 X149.567 Y112.859 E.01721
G1 X149.295 Y113.042 E.01749
G1 X148.973 Y113.196 E.01897
G1 X148.572 Y113.311 E.02222
G1 X148.025 Y113.368 E.02929
G1 X146.532 Y113.37 E.07947
G1 X146.406 Y113.274 E.00844
G1 X146.357 Y113.095 E.00987
G1 X146.376 Y112.985 E.00594
G1 X146.482 Y112.93 E.00635
G1 X148.267 Y112.914 E.09504
G1 X148.642 Y112.835 E.02039
G1 X149.03 Y112.671 E.02248
G1 X149.423 Y112.397 E.02548
G1 X149.692 Y112.091 E.0217
G1 X149.876 Y111.753 E.0205
G1 X149.946 Y111.568 E.01053
G1 X150.06 Y110.927 E.03465
G1 X150.053 Y108.932 E.10623
G1 X149.991 Y108.549 E.02066
G1 X149.937 Y108.362 E.01037
G1 X149.708 Y107.898 E.02758
G1 X149.428 Y107.551 E.02376
G1 X149.256 Y107.406 E.01193
G1 X149.08 Y107.298 E.01101
G1 X148.606 Y107.107 E.02723
G1 X148.053 Y107.015 E.02984
G1 X71.951 Y107.015 E4.05214
G1 X71.343 Y107.124 E.03288
G1 X71.15 Y107.188 E.01083
G1 X70.824 Y107.363 E.01973
G1 X70.563 Y107.563 E.0175
G1 X70.316 Y107.844 E.01994
G1 X70.123 Y108.186 E.02085
G1 X70.036 Y108.446 E.01463
G1 X69.951 Y108.908 E.02501
G1 X69.94 Y110.922 E.10722
G1 X70.049 Y111.53 E.03289
G1 X70.148 Y111.8 E.01532
G1 X70.355 Y112.15 E.02165
G1 X70.569 Y112.397 E.0174
G1 X70.783 Y112.567 E.01454
G1 X71.122 Y112.751 E.02054
G1 X71.243 Y112.797 E.0069
G1 X71.837 Y112.924 E.03236
G1 X112.818 Y112.935 E2.18208
G1 X112.919 Y112.983 E.00594
G1 X112.946 Y113.092 E.00597
G1 X112.911 Y113.266 E.00947
G1 X112.845 Y113.356 E.00594
G1 X112.783 Y113.371 E.00338
G1 X71.965 Y113.37 E2.17343
G1 X71.558 Y113.338 E.0217
G1 X71.168 Y113.247 E.02134
G1 X70.853 Y113.12 E.0181
G1 X70.558 Y112.949 E.01812
G1 X70.233 Y112.684 E.02233
G1 X70.006 Y112.428 E.01824
G1 X69.826 Y112.157 E.01732
G1 X69.673 Y111.834 E.01902
G1 X69.564 Y111.449 E.0213
G1 X69.507 Y110.9 E.02942
G1 X69.504 Y109.07 E.09745
G1 X69.537 Y108.635 E.02323
G1 X69.622 Y108.262 E.02036
G1 X69.756 Y107.923 E.0194
G1 X69.931 Y107.626 E.01837
G1 X70.158 Y107.343 E.0193
G1 X70.421 Y107.101 E.01905
G1 X70.751 Y106.883 E.02107
G1 X71.046 Y106.745 E.01732
G1 X71.344 Y106.655 E.01659
G1 X71.992 Y106.581 E.0347
G1 X76.63 Y106.581 E.24695
M204 S8000
G1 E-.5 F3000
G1 X84.241 Y107.144 Z.7 F12600
G1 X143.125 Y111.494 Z.7
G1 Z.3
G1 E.5 F3000
M204 S5000
;TYPE:Support
G1 F3600
G1 X143.699 Y112.285 E.05205
G1 X144.123 Y113.166 E.05205
G1 X144.383 Y114.108 E.05205
G1 X144.471 Y115.081 E.05205
G1 X144.383 Y116.055 E.05205
G1 X144.123 Y116.997 E.05205
G1 X143.699 Y117.878 E.05205
G1 X143.125 Y118.669 E.05205
G1 X142.418 Y119.344 E.05205
G1 X141.602 Y119.883 E.05205
G1 X140.703 Y120.267 E.05205
G1 X139.75 Y120.484 E.05205
G1 X138.774 Y120.528 E.05205
G1 X137.805 Y120.397 E.05205
G1 X136.876 Y120.095 E.05205
G1 X136.015 Y119.632 E.05205
G1 X135.584 Y119.288 E.02937
G1 X134.692 Y119.876 E.05687
G1 X133.794 Y120.26 E.05205
G1 X132.841 Y120.478 E.05205
G1 X131.864 Y120.522 E.05205
G1 X130.895 Y120.391 E.05205
G1 X129.966 Y120.088 E.05205
G1 X129.081 Y119.612 E.05349
G1 X128.68 Y119.877 E.02559
G1 X127.781 Y120.261 E.05205
G1 X126.828 Y120.479 E.05205
G1 X125.852 Y120.523 E.05205
G1 X124.883 Y120.392 E.05205
G1 X123.954 Y120.089 E.05205
G1 X123.173 Y119.669 E.04719
G1 X122.886 Y119.859 E.01832
G1 X121.987 Y120.243 E.05205
